X: 10
T: Crooked Stovepipe #3, The
I: Crooked Stovepipe, TheS-CGsquare
%C: S-C
M: C|
%Q: 1/2=100
Z: Transcribed to abc by Mary Lou Knack
R: square
K: G
|: "G"G2B2 BcdB | G2B2 BcdB | G2B2 "E7"e3B | "Am"d2c2 cdcA \
| "D7"F2A2 ABcA | F2A2 ABcd | "(C)"e3d "D7"e2f2 |1 "G"g2fe dcBA :|2 "G"g2^g2 "D7"a2^a2 |] 
|: "G"b3c' b2a2 | g3a g2f2 | "C"e2e2 f2g2 | "A(m)"a6 b2 \
| "D7"c'3d' c'2a2 | f6 e2 | d2d2 e2f2 |1 "G"g2^g2 "D7"a2^a2 :|2 "G"g2fe dcB"d.C."A |] "G"HG8 |]
